public/shapes/characters/511.svg

<?xml version="1.0" encoding="UTF-8"?>
<svg width="96.3px" height="69.6px" version="1.1" xmlns="http://www.w3.org/2000/svg" xmlns:cc="http://creativecommons.org/ns#" xmlns:dc="http://purl.org/dc/elements/1.1/" xmlns:rdf="http://www.w3.org/1999/02/22-rdf-syntax-ns#">
 <metadata>
  <rdf:RDF>
   <cc:Work rdf:about="">
    <dc:format>image/svg+xml</dc:format>
    <dc:type rdf:resource="http://purl.org/dc/dcmitype/StillImage"/>
    <dc:title/>
   </cc:Work>
  </rdf:RDF>
 </metadata>
 <path d="m10.418 67.842 24.054 0.25409v-33.286l11.18-9.2319-5.5053-3.896 7.4533-0.16939 25.07 5.0818 10.248-4.1501-20.581-13.213-15.669 0.25409-0.25409-5.5053-4.2348-3.0491-5.1789 0.86834-6.0011-0.27546-4.4042 3.7266 0.84697 4.4042-7.2839 1.1011 7.1992 27.272-3.0491 14.398z" fill="#fff"/>
 <g transform="translate(48.15 34.8)" fill-rule="evenodd">
  <path d="m-4.85-29.7q0.6 0 1.05 0.45 0.45 0.4 0.45 1t-0.45 1.05-1.05 0.45-1-0.45q-0.45-0.45-0.45-1.05t0.45-1q0.4-0.45 1-0.45"/>
  <path d="m-13.45-26.75q-0.65 0-1.05-0.45-0.45-0.45-0.45-1.05t0.45-1q0.4-0.45 1.05-0.45 0.6 0 1.05 0.45 0.4 0.4 0.4 1t-0.4 1.05q-0.45 0.45-1.05 0.45"/>
  <path d="m-3.65-31.4q-1.25-1.25-3.05-1.25-1.85 0-3.15 1.45 0.7 1.3 0.7 2.85t-0.7 2.85q1.35 1.45 3.15 1.45t3.05-1.25q1.25-1.3 1.25-3.05t-1.25-3.05m-15 0q-1.25 1.3-1.25 3.05t1.25 3.05q1.25 1.25 3 1.25 1.8 0 3.05-1.25 1.25-1.3 1.25-3.05t-1.25-3.05q-1.25-1.25-3.05-1.25-1.75 0-3 1.25m48.55 20.05q-3.6-0.95-6.95-3.2-5-3.35-8.4-8.95h-16.95q-1.85 1.6-4.3 1.6-2.4 0-4.25-1.6h-0.4q-1.85 1.6-4.3 1.6-2.4 0-4.25-1.6l-6.6 0.1 4.4 14.1q2.6 7.15 2.6 13.5 0 9.35-5.35 17.3-3.8 5.65-9.8 10h18.8v-27.3q0-4.4 3.65-8.2 2.6-2.8 6.9-5.05l-4.55 0.15-3.4 0.6-2.75 0.65 0.8-2.7q1.15-3.9 7.05-5l6.6-0.25h0.2l0.2 0.05q19.05 6.9 31.05 4.2m18.25-15.45-0.25 1.85-1.65 5.1q-2.7 5.45-7.95 8.7-13.65 8.3-40.3-1.25l-4 0.05q4 0.2 6.3 1.6l2.9 1.8-3.25 1.15q-3.2 1.15-6.3 3.2-6.25 4.1-6.25 8.9l0.05 0.4v30.1h-27.8l-0.05-0.3q-4.95-2.05-6.95-10.35l-0.8-6.4q0.8 5.55 3.15 9.35 1.8 2.9 4.3 4.4 7.55-3.85 12.55-10.75 9.05-12.55 2.95-29l-4.05-13.15-0.2 29.85q-0.35 1.55-0.95 2.3-1.15 1.45-2.3-2.55l2.25-33.35-0.45-1.5 9-0.1-0.2-1.6q0-2.65 1.9-4.55t4.55-1.9q2.7 0 4.5 1.8 1.8-1.8 4.45-1.8 2.7 0 4.6 1.9t1.9 4.55l-0.2 1.55h48.55"/>
 </g>
</svg>

<?xml version="1.0" encoding="UTF-8" standalone="no"?>
<svg xmlns:xlink="http://www.w3.org/1999/xlink" height="69.6px" width="96.3px" xmlns="http://www.w3.org/2000/svg">
  <g transform="matrix(1.0, 0.0, 0.0, 1.0, 48.15, 34.8)">
    <path d="M-4.85 -29.7 Q-4.25 -29.7 -3.8 -29.25 -3.35 -28.85 -3.35 -28.25 -3.35 -27.65 -3.8 -27.2 -4.25 -26.75 -4.85 -26.75 -5.45 -26.75 -5.85 -27.2 -6.3 -27.65 -6.3 -28.25 -6.3 -28.85 -5.85 -29.25 -5.45 -29.7 -4.85 -29.7" fill="#000000" fill-rule="evenodd" stroke="none"/>
    <path d="M-13.45 -26.75 Q-14.1 -26.75 -14.5 -27.2 -14.95 -27.65 -14.95 -28.25 -14.95 -28.85 -14.5 -29.25 -14.1 -29.7 -13.45 -29.7 -12.85 -29.7 -12.4 -29.25 -12.0 -28.85 -12.0 -28.25 -12.0 -27.65 -12.4 -27.2 -12.85 -26.75 -13.45 -26.75" fill="#000000" fill-rule="evenodd" stroke="none"/>
    <path d="M-3.65 -31.4 Q-4.9 -32.65 -6.7 -32.65 -8.55 -32.65 -9.85 -31.2 -9.15 -29.9 -9.15 -28.35 -9.15 -26.8 -9.85 -25.5 -8.5 -24.05 -6.7 -24.05 -4.9 -24.05 -3.65 -25.3 -2.4 -26.6 -2.4 -28.35 -2.4 -30.1 -3.65 -31.4 M-18.65 -31.4 Q-19.9 -30.1 -19.9 -28.35 -19.9 -26.6 -18.65 -25.3 -17.4 -24.05 -15.65 -24.05 -13.85 -24.05 -12.6 -25.3 -11.35 -26.6 -11.35 -28.35 -11.35 -30.1 -12.6 -31.4 -13.85 -32.65 -15.65 -32.65 -17.4 -32.65 -18.65 -31.4 M29.9 -11.35 Q26.3 -12.3 22.95 -14.55 17.95 -17.9 14.55 -23.5 L-2.4 -23.5 Q-4.25 -21.9 -6.7 -21.9 -9.1 -21.9 -10.95 -23.5 L-11.35 -23.5 Q-13.2 -21.9 -15.65 -21.9 -18.05 -21.9 -19.9 -23.5 L-26.5 -23.4 -22.1 -9.3 Q-19.5 -2.15 -19.5 4.2 -19.5 13.55 -24.85 21.5 -28.65 27.15 -34.65 31.5 L-15.85 31.5 -15.85 4.2 Q-15.85 -0.2 -12.2 -4.0 -9.6 -6.8 -5.3 -9.05 L-9.85 -8.9 -13.25 -8.3 -16.0 -7.65 -15.2 -10.35 Q-14.05 -14.25 -8.15 -15.35 L-1.55 -15.6 -1.35 -15.6 -1.15 -15.55 Q17.9 -8.65 29.9 -11.35 M48.15 -26.8 L47.9 -24.95 46.25 -19.85 Q43.55 -14.4 38.3 -11.15 24.65 -2.85 -2.0 -12.4 L-6.0 -12.35 Q-2.0 -12.15 0.3 -10.75 L3.2 -8.95 -0.05 -7.8 Q-3.25 -6.65 -6.35 -4.6 -12.6 -0.5 -12.6 4.3 L-12.55 4.7 -12.55 34.8 -40.35 34.8 -40.4 34.5 Q-45.35 32.45 -47.35 24.15 L-48.15 17.75 Q-47.35 23.3 -45.0 27.1 -43.2 30.0 -40.7 31.5 -33.15 27.65 -28.15 20.75 -19.1 8.2 -25.2 -8.25 L-29.25 -21.4 -29.45 8.45 Q-29.8 10.0 -30.4 10.75 -31.55 12.2 -32.7 8.2 L-30.45 -25.15 -30.9 -26.65 -21.9 -26.75 -22.1 -28.35 Q-22.1 -31.0 -20.2 -32.9 -18.3 -34.8 -15.65 -34.8 -12.95 -34.8 -11.15 -33.0 -9.35 -34.8 -6.7 -34.8 -4.0 -34.8 -2.1 -32.9 -0.2 -31.0 -0.2 -28.35 L-0.4 -26.8 48.15 -26.8" fill="#000000" fill-rule="evenodd" stroke="none"/>
  </g>
</svg>
